assets/Woman facepalming/Medium-Light/Flat/woman_facepalming_flat_medium-light.svg

<svg width="32" height="32" viewBox="0 0 32 32" fill="none" xmlns="http://www.w3.org/2000/svg">
<path d="M25.5683 15.2329C25.8494 14.6606 26 14.008 26 13.3353C26 12.4418 25.7289 11.6084 25.2671 10.9056C24.8052 10.2028 24.5643 9.38956 24.5643 8.54618V8.53614C24.5643 6.11647 22.5964 4.14859 20.1767 4.14859C19.9357 4.14859 19.7149 4.03815 19.5743 3.84739C18.7711 2.72289 17.4659 2 16 2C14.5341 2 13.2189 2.72289 12.4257 3.83735C12.2851 4.02811 12.0643 4.14859 11.8233 4.13855C9.40361 4.13855 7.43574 6.10643 7.43574 8.5261V8.53614C7.43574 9.37952 7.19478 10.1928 6.73293 10.8956C6.27108 11.5884 6 12.4217 6 13.3253C6 14.008 6.1506 14.6506 6.43173 15.2229C6.52209 15.4137 6.52209 15.6446 6.43173 15.8353C6.1506 16.3976 6 17.0402 6 17.7129C6 20.0823 7.91767 22 10.2871 22H21.7129C24.0823 22 26 20.0823 26 17.7129C26 17.0402 25.8494 16.4076 25.5683 15.8353C25.4779 15.6446 25.4779 15.4237 25.5683 15.2329Z" fill="#FFF9BA"/>
<path d="M6 29.6161C6 24.311 10.4745 20.0098 16 20C18.2518 20 20.329 20.716 22 21.9234L20.3334 30H6V29.6161Z" fill="#8B62BF"/>
<path d="M15.5 24.5C14.1174 24.5 13 23.306 13 21.8286V18.6714C13 17.194 14.1174 16 15.5 16C16.8826 16 18 17.194 18 18.6714V21.8286C18 23.306 16.8826 24.5 15.5 24.5Z" fill="#E4B29A"/>
<path d="M11.5 13.5C11.5 14.6046 10.6046 15.5 9.5 15.5C8.39543 15.5 7.5 14.6046 7.5 13.5C7.5 12.3954 8.39543 11.5 9.5 11.5C10.6046 11.5 11.5 12.3954 11.5 13.5Z" fill="#E4B29A"/>
<path d="M23.5 13.5164C23.5 14.63 22.6046 15.5327 21.5 15.5327C20.3954 15.5327 19.5 14.63 19.5 13.5164C19.5 12.4028 20.3954 11.5 21.5 11.5C22.6046 11.5 23.5 12.4028 23.5 13.5164Z" fill="#E4B29A"/>
<path d="M9.18471 9.27014C10.2939 9.19061 11.2731 8.48646 11.6933 7.45635L11.7904 7.21416C11.8875 6.96227 12.2274 6.92352 12.3828 7.14634C13.2955 8.48326 14.8199 9.27766 16.4415 9.27766H21.8215C21.9557 9.74381 22.0178 10.2388 21.9956 10.7503L21.8208 14.9839C21.6654 18.5877 18.8787 21 15.4997 21C12.1109 21 9.33388 18.5877 9.17852 14.9839L9.00374 10.7503C8.98322 10.2366 9.04765 9.73891 9.18471 9.27014Z" fill="#EEBFAA"/>
<path d="M11.7752 12.6999C11.941 12.5757 12.176 12.6095 12.3002 12.7752C12.572 13.1382 13.0125 13.375 13.5 13.375C13.9965 13.375 14.4274 13.1391 14.6999 12.7752C14.824 12.6095 15.0591 12.5757 15.2248 12.6999C15.3906 12.824 15.4243 13.0591 15.3002 13.2248C14.8927 13.7689 14.2436 14.125 13.5 14.125C12.7675 14.125 12.108 13.7698 11.6999 13.2248C11.5757 13.0591 11.6095 12.824 11.7752 12.6999Z" fill="#A56953"/>
<path d="M17.9704 17.6815C17.549 16.9746 16.8252 16.5 16.0006 16.5C15.176 16.5 14.4522 16.9746 14.0308 17.6815C13.9392 17.833 14.0674 18.0147 14.214 17.9945H17.778C17.9246 18.0349 18.0621 17.8431 17.9704 17.6815Z" fill="#990838"/>
<path d="M11.0484 10.8444C11.1183 10.9481 11.2381 11 11.358 11C11.4179 11 11.4778 10.9827 11.5277 10.9568C11.5377 10.9481 12.4961 10.4815 13.5644 10.6543C13.7541 10.6802 13.9438 10.5679 13.9837 10.4037C14.0137 10.2395 13.8839 10.0753 13.6942 10.0494C12.3663 9.8333 11.2282 10.395 11.1782 10.421C11.0085 10.5074 10.9486 10.6975 11.0484 10.8444Z" fill="#A56953"/>
<path d="M20.4711 10.9603C20.5311 10.9865 20.5912 11.004 20.6512 11.004C20.7713 11.004 20.8914 10.9515 20.9514 10.8466C21.0515 10.6978 20.9915 10.5141 20.8213 10.4267C20.8178 10.4254 20.8086 10.4213 20.7943 10.415C20.6074 10.3319 19.5354 9.85553 18.2994 10.0505C18.1093 10.0767 17.9792 10.2429 18.0192 10.4004C18.0492 10.5754 18.2394 10.6891 18.4295 10.6541C19.5003 10.4791 20.4611 10.9515 20.4711 10.9603Z" fill="#A56953"/>
<path d="M23.4729 18.4704C23.5387 17.7462 23.6892 17.0316 23.9432 16.3557C24.3194 15.3708 24.7238 14.6176 24.7238 14.6079C24.9684 14.1637 24.8085 13.594 24.3758 13.343C23.9432 13.0919 23.3883 13.2561 23.1437 13.7002C23.1249 13.7389 22.8804 14.1927 22.5888 14.859C22.5512 14.9556 22.4195 14.9459 22.3913 14.8493C21.9492 13.4588 21.7047 11.7111 21.6482 10.9868C21.6106 10.5233 21.2062 10.1757 20.7547 10.224C20.3032 10.2626 19.9646 10.6778 20.0117 11.1413C20.0117 11.18 20.0963 12.1166 20.3126 13.2754C20.3408 13.4106 20.3597 13.5361 20.3879 13.6616C20.3973 13.7002 20.3691 13.7389 20.3314 13.7389C20.3032 13.7389 20.275 13.7196 20.2656 13.6906C19.8141 12.107 19.6072 10.7454 19.6072 10.7165C19.5414 10.253 19.1181 9.9343 18.6667 10.0115C18.2152 10.0791 17.9048 10.5137 17.98 10.9772C17.9895 11.0448 18.2622 12.4546 18.5914 13.7871C18.6008 13.8161 18.5538 13.8354 18.5444 13.8065L17.7919 11.8559C17.6038 11.431 17.1241 11.2282 16.7103 11.4021C16.287 11.5855 16.0989 12.107 16.2776 12.5415L17.1712 14.6659C17.1994 14.7238 17.1147 14.7721 17.0771 14.7141C16.7667 14.1058 16.5504 13.6809 16.5504 13.6809C16.3435 13.2657 15.845 13.1112 15.4405 13.3236C15.0361 13.5361 14.8856 14.0479 15.0925 14.4631C16.0237 16.2881 17.538 19.2622 17.7261 19.6582C17.7355 19.6775 17.7449 19.6871 17.7543 19.6968C18.0741 20.3051 18.5914 20.8072 19.2592 21.0873C20.8017 21.7536 22.5888 21.01 23.2472 19.4264C23.3694 19.1077 23.4447 18.7891 23.4729 18.4704Z" fill="#D6A089"/>
<path d="M23.6234 21.628L19.1087 22.8737L18.8171 21.7632C18.7513 21.5218 18.8923 21.2804 19.1275 21.2128L22.7957 20.2085C23.0308 20.1409 23.2659 20.2858 23.3318 20.5272L23.6234 21.628Z" fill="#774AA6"/>
<path d="M19.7953 29.9999H27L24.8085 21.5894C24.705 21.1838 24.2911 20.9424 23.8961 21.0486L18.6196 22.497C18.2245 22.6033 17.9894 23.0281 18.0929 23.4337L19.7953 29.9999Z" fill="#A17FD5"/>
</svg>

<svg xmlns="http://www.w3.org/2000/svg" width="32" height="32" fill="none"><path fill="#FFF9BA" d="M25.568 15.233A4.314 4.314 0 0 0 26 13.335a4.41 4.41 0 0 0-.733-2.43 4.275 4.275 0 0 1-.703-2.359v-.01a4.392 4.392 0 0 0-4.387-4.387.742.742 0 0 1-.603-.302 4.388 4.388 0 0 0-7.149-.01.716.716 0 0 1-.602.302 4.392 4.392 0 0 0-4.387 4.387v.01c0 .844-.241 1.657-.703 2.36A4.36 4.36 0 0 0 6 13.326c0 .682.15 1.325.432 1.897.09.19.09.422 0 .612A4.197 4.197 0 0 0 6 17.713 4.285 4.285 0 0 0 10.287 22h11.426A4.285 4.285 0 0 0 26 17.713c0-.673-.15-1.305-.432-1.878a.703.703 0 0 1 0-.602Z"/><path fill="#8B62BF" d="M6 29.616C6 24.311 10.475 20.01 16 20c2.252 0 4.329.716 6 1.923L20.333 30H6v-.384Z"/><path fill="#E4B29A" d="M15.5 24.5c-1.383 0-2.5-1.194-2.5-2.671V18.67C13 17.194 14.117 16 15.5 16s2.5 1.194 2.5 2.671v3.158c0 1.477-1.117 2.671-2.5 2.671ZM11.5 13.5a2 2 0 1 1-4 0 2 2 0 0 1 4 0ZM23.5 13.516a2.008 2.008 0 0 1-2 2.017c-1.105 0-2-.903-2-2.017 0-1.113.895-2.016 2-2.016s2 .903 2 2.016Z"/><path fill="#EEBFAA" d="M9.185 9.27a2.941 2.941 0 0 0 2.508-1.814l.097-.242a.337.337 0 0 1 .593-.068 4.913 4.913 0 0 0 4.059 2.132h5.38c.134.466.196.96.174 1.472l-.175 4.234C21.665 18.588 18.879 21 15.5 21c-3.39 0-6.166-2.412-6.321-6.016l-.175-4.234a4.609 4.609 0 0 1 .18-1.48Z"/><path fill="#A56953" d="M11.775 12.7c.166-.124.401-.09.525.075a1.503 1.503 0 0 0 2.4 0 .375.375 0 0 1 .6.45 2.253 2.253 0 0 1-3.6 0 .375.375 0 0 1 .075-.525Z"/><path fill="#990838" d="M17.97 17.681C17.55 16.976 16.825 16.5 16 16.5c-.824 0-1.548.475-1.97 1.181-.09.152.037.334.184.313h3.564c.147.04.284-.15.192-.313Z"/><path fill="#A56953" d="M11.048 10.844a.376.376 0 0 0 .48.112c.01-.008.968-.474 2.036-.302.19.026.38-.086.42-.25.03-.165-.1-.329-.29-.355-1.328-.216-2.466.346-2.516.372-.17.086-.23.277-.13.423ZM20.471 10.96c.06.026.12.044.18.044a.34.34 0 0 0 .3-.157c.1-.15.04-.333-.13-.42l-.027-.012c-.187-.083-1.259-.56-2.495-.364-.19.026-.32.192-.28.35.03.174.22.288.41.253 1.071-.175 2.032.297 2.042.306Z"/><path fill="#D6A089" d="M23.473 18.47a8.092 8.092 0 0 1 .47-2.114c.376-.985.78-1.738.78-1.748a.947.947 0 0 0-.347-1.265.897.897 0 0 0-1.232.357c-.02.039-.264.493-.555 1.159a.104.104 0 0 1-.198-.01c-.442-1.39-.686-3.138-.743-3.862-.037-.464-.442-.811-.893-.763a.832.832 0 0 0-.743.917c0 .039.084.976.3 2.134.029.136.048.261.076.387.01.038-.019.077-.057.077a.07.07 0 0 1-.065-.048 24.873 24.873 0 0 1-.659-2.975.818.818 0 0 0-.94-.704.834.834 0 0 0-.687.965c.01.068.282 1.478.611 2.81.01.03-.037.048-.047.02l-.752-1.951c-.188-.425-.668-.628-1.082-.454-.423.184-.611.705-.432 1.14l.893 2.124c.028.058-.056.106-.094.048l-.527-1.033a.812.812 0 0 0-1.11-.357c-.404.212-.554.724-.348 1.14.932 1.824 2.446 4.798 2.634 5.194.01.02.019.03.028.039.32.608.837 1.11 1.505 1.39 1.543.667 3.33-.077 3.988-1.66.122-.32.198-.638.226-.957Z"/><path fill="#774AA6" d="m23.623 21.628-4.514 1.246-.292-1.11a.448.448 0 0 1 .31-.551l3.669-1.005a.434.434 0 0 1 .536.32l.291 1.1Z"/><path fill="#A17FD5" d="M19.795 30H27l-2.192-8.41a.747.747 0 0 0-.912-.541l-5.276 1.448c-.396.106-.63.531-.527.937L19.795 30Z"/></svg>
